X: 11085
T: SANDY SILVA'S
C: Bob McQuillen March'94
B: Bob's Note Book 11 #85
%R: reel, hornpipe
Z: 2020 John Chambers <jc:trillian.mit.edu>
M: C
L: 1/8
K: G
|:B2d2 B2d2 | B2GB AGEG | DEGA Bdeg | dBGB AGED |
| B2d2 B2d2 | B2GB AGEG | DEGA Bdge | dega bgeg :|
|:d2Bd edBd | B2GB AGED | G2Bd edBd | gedB AGEG |
| DEGA B2BA | GBde g2ga | b2bg ageg | dBGB AGED :|
%%begintext align
%% Sandy Silva
%% has to be one of the best tap/step dancers I
%% ever saw - I hope you get to see her - she's out
%% of this world! And Sandy, I hope you have a ball
%% steppin' to this tune - it's just for you, with love
%% from Bob
%%endtext

%%sep 1 1 500

%%sep 1 1 500

